X:1
T:Láttál-e már valaha
T: 
C:Hungarian folk song
Z:Public Domain
L:1/4
Q:1/4=120
M:4/4
K:C
V:1 treble nm="MusicXML Part"
%%MIDI program 0
V:1
"C" C D E F | E D E2 | C D E F |"G" G2 G z |"G" G E G F | E D E2 |"C" C D E D | C2 C z |] %8
w: Lát- tá- e már|va- la- ha|csip- ke- bo- kor|ró- zsát,|Csip- ke- bo- kor|ró- zsa közt|két szál ma- jo-|ran- nát?|

